X: 11814
T: A BRAWL
C: 1588.
%R: march
B: W. Hamilton "Universal Tune-Book" Vol. 1 Glasgow 1844 p.181 #4
S: http://imslp.org/wiki/Hamilton's_Universal_Tune-Book_(Various)
Z: 2016 John Chambers <jc:trillian.mit.edu>
M: C
L: 1/8
K: G
% - - - - - - - - - - - - - - - - - - - - - - - - -
|:\
G4 G4 | AGFE D4- | D2D2 E2G2 | G2F2 G4 :|\
|:\
d3c BcdB | c3B ABcA | B3A GABG | A3G FGAF |\
G3F EFGE | F3E D2D2 | E2G2 G2F2 | G4 G2z2 :|
% - - - - - - - - - - - - - - - - - - - - - - - - -

%%sep 1 1 500
%%sep 1 1 500

